src/assets/icons/ico_garden.svg

<?xml version="1.0" encoding="utf-8"?>
<!-- Generator: Adobe Illustrator 26.0.1, SVG Export Plug-In . SVG Version: 6.00 Build 0)  -->
<svg version="1.1" id="Layer_1" xmlns="http://www.w3.org/2000/svg" xmlns:xlink="http://www.w3.org/1999/xlink" x="0px" y="0px"
	 viewBox="0 0 64 64" style="enable-background:new 0 0 64 64;" xml:space="preserve">
<style type="text/css">
	.st0{fill:#43BBC4;}
</style>
<path class="st0" d="M58.8916,43.9863c0-0.2764-0.2236-0.5-0.5-0.5h-6.0943l-0.006-2.157c2.8037-0.2612,5.0065-2.6246,5.0065-5.4954
	c0-1.9318-1.0257-3.7122-2.6483-4.7003c0.3224-0.5268,0.496-1.1323,0.496-1.7548c0-1.8584-1.5117-3.3701-3.3701-3.3701
	c-1.8574,0-3.3691,1.5117-3.3691,3.3701c0,0.6216,0.1735,1.2267,0.495,1.7543c-1.621,0.9886-2.6464,2.7685-2.6464,4.7007
	c0,2.8815,2.2188,5.2505,5.0364,5.4969l0.006,2.1554H40.498V26.4931l0.4023,0.2549c0.0811,0.0508,0.1738,0.0771,0.2676,0.0771
	c0.043,0,0.0859-0.0059,0.1279-0.0166c0.1348-0.0352,0.248-0.126,0.3135-0.249l1.3125-2.4678
	c0.124-0.2324,0.0459-0.5205-0.1777-0.6592L24.6484,12.2129c-0.1621-0.0996-0.3652-0.0996-0.5273,0L6.0254,23.4326
	c-0.2236,0.1387-0.3018,0.4268-0.1777,0.6592l1.3125,2.4678c0.0654,0.123,0.1787,0.2139,0.3135,0.249
	c0.1328,0.0332,0.2764,0.0137,0.3955-0.0605l0.4023-0.2549v21.668H5.6084c-0.2764,0-0.5,0.2236-0.5,0.5v2.7012
	c0,0.2764,0.2236,0.5,0.5,0.5h52.7764c0.2764,0,0.5-0.2236,0.5-0.5v-0.802c0.0009-0.0118,0.0068-0.0219,0.0068-0.0339V43.9863z
	 M47.2549,35.834c0-1.749,1.0186-3.3535,2.5938-4.0879c0.0226-0.0105,0.0375-0.0292,0.0578-0.0424
	c0.0207-0.0134,0.0442-0.0198,0.0633-0.0367c0.0071-0.0063,0.0098-0.0152,0.0164-0.0219c0.0258-0.0255,0.0443-0.0546,0.0637-0.0847
	c0.0162-0.0249,0.0338-0.0479,0.0451-0.0748c0.013-0.0308,0.018-0.0628,0.0246-0.0956c0.0062-0.0304,0.0139-0.0594,0.0143-0.0904
	c0.0004-0.0305-0.0068-0.0598-0.012-0.0904c-0.0059-0.0347-0.0114-0.0682-0.0247-0.1014c-0.0034-0.0085-0.0024-0.0175-0.0063-0.0258
	c-0.0103-0.0222-0.0286-0.0366-0.0416-0.0565c-0.0137-0.0212-0.0203-0.0452-0.0375-0.0646c-0.3906-0.4404-0.6055-1.002-0.6055-1.582
	c0-1.3066,1.0625-2.3701,2.3691-2.3701s2.3701,1.0635,2.3701,2.3701c0,0.5811-0.2158,1.1426-0.6074,1.5811
	c-0.0165,0.0186-0.0228,0.0416-0.0361,0.0618c-0.0139,0.0211-0.0331,0.0366-0.0439,0.0602
	c-0.0039,0.0083-0.0028,0.0172-0.0062,0.0256c-0.0132,0.0328-0.0183,0.066-0.0243,0.1003
	c-0.0054,0.0307-0.0129,0.0602-0.0125,0.0908c0.0004,0.032,0.0085,0.062,0.0149,0.0933c0.0065,0.0314,0.0109,0.0621,0.0232,0.0916
	c0.0118,0.0286,0.0306,0.0531,0.0479,0.0794c0.0187,0.0286,0.0362,0.0566,0.0608,0.0811c0.0067,0.0066,0.0093,0.0155,0.0164,0.0218
	c0.0225,0.02,0.0495,0.0297,0.0743,0.0449c0.0171,0.0106,0.0291,0.0265,0.0478,0.0352c1.5781,0.7344,2.5977,2.3389,2.5977,4.0879
	c0,2.3175-1.7592,4.2112-4.0093,4.4696l-0.0031-1.1057l1.5651-1.0134c0.2324-0.1504,0.2979-0.46,0.1484-0.6914
	c-0.1504-0.2334-0.4609-0.2959-0.6914-0.1484l-1.0255,0.6639l-0.0068-2.4442c-0.001-0.2764-0.2246-0.499-0.5-0.499h-0.001
	c-0.2764,0.001-0.5,0.2256-0.499,0.501l0.0014,0.5134l-0.8032-0.571c-0.2246-0.1592-0.5361-0.1064-0.6973,0.1172
	c-0.1602,0.2256-0.1074,0.5371,0.1172,0.6973l1.3867,0.9857l0.0083,2.9973C49.0275,40.0596,47.2549,38.1603,47.2549,35.834z
	 M57.8916,44.4863v3.6748h-5.5814L52.3,44.4863H57.8916z M51.3,44.4863l0.0102,3.6748H40.498v-3.6748H51.3z M35.3711,48.1445h-0.113
	c-0.0309-0.006-0.0594-0.0186-0.092-0.0186s-0.0612,0.0126-0.092,0.0186h-6.2019V36.6885h6.499V48.1445z M7.79,25.6143
	l-0.8398-1.5781l17.4346-10.8105l17.4346,10.8105l-0.8398,1.5781L24.6523,15.2695c-0.082-0.0518-0.1748-0.0771-0.2676-0.0771
	s-0.1855,0.0254-0.2676,0.0771L7.79,25.6143z M24.3848,16.2842l15.1133,9.5754v22.285h-3.127V36.1885c0-0.2764-0.2236-0.5-0.5-0.5
	h-7.499c-0.2764,0-0.5,0.2236-0.5,0.5v11.9561H9.2715v-22.285L24.3848,16.2842z M57.8848,50.8623H6.1084v-1.7012h22.2637h0.001
	h29.5117V50.8623z"/>
<path class="st0" d="M21.2393,26.6191h6.291c0.2764,0,0.5-0.2236,0.5-0.5v-5.0898c0-0.2764-0.2236-0.5-0.5-0.5h-6.291
	c-0.2764,0-0.5,0.2236-0.5,0.5v5.0898C20.7393,26.3955,20.9629,26.6191,21.2393,26.6191z M21.7393,24.0742h2.1455v1.5449h-2.1455
	V24.0742z M24.8848,25.6191v-1.5449h2.1455v1.5449H24.8848z M27.0303,23.0742h-2.1455v-1.5449h2.1455V23.0742z M23.8848,21.5293
	v1.5449h-2.1455v-1.5449H23.8848z"/>
<path class="st0" d="M33.4521,42.634c0.3258,0,0.59-0.2641,0.59-0.5899c0-0.3259-0.2642-0.59-0.59-0.59s-0.59,0.2641-0.59,0.59
	C32.8621,42.3699,33.1263,42.634,33.4521,42.634z"/>
<path class="st0" d="M13.0303,41.7715h9.4287c0.2764,0,0.5-0.2236,0.5-0.5v-5.083c0-0.2764-0.2236-0.5-0.5-0.5h-9.4287
	c-0.2764,0-0.5,0.2236-0.5,0.5v5.083C12.5303,41.5479,12.7539,41.7715,13.0303,41.7715z M13.5303,36.6885h8.4287v4.083h-8.4287
	V36.6885z"/>
</svg>

<?xml version="1.0" encoding="UTF-8" standalone="no"?>
<!DOCTYPE svg PUBLIC "-//W3C//DTD SVG 1.1//EN" "http://www.w3.org/Graphics/SVG/1.1/DTD/svg11.dtd">
<svg width="100%" height="100%" viewBox="0 0 64 64" version="1.1" xmlns="http://www.w3.org/2000/svg" xmlns:xlink="http://www.w3.org/1999/xlink" xml:space="preserve" xmlns:serif="http://www.serif.com/" style="fill-rule:evenodd;clip-rule:evenodd;stroke-linejoin:round;stroke-miterlimit:2;">
    <g transform="matrix(0.0625,0,0,0.0833333,0,0)">
        <rect id="ico_garden" x="0" y="0" width="1024" height="768" style="fill:none;"/>
        <g id="ico_garden1" serif:id="ico_garden">
            <g id="ico_garden.svg" transform="matrix(16,0,0,12,512,384)">
                <g transform="matrix(1,0,0,1,-32,-32)">
                    <g>
                        <path d="M58.892,43.986C58.892,43.71 58.668,43.486 58.392,43.486L52.297,43.486L52.291,41.329C55.095,41.068 57.298,38.705 57.298,35.834C57.298,33.902 56.272,32.122 54.65,31.134C54.972,30.607 55.146,30.001 55.146,29.379C55.146,27.52 53.634,26.009 51.775,26.009C49.918,26.009 48.406,27.52 48.406,29.379C48.406,30 48.58,30.606 48.901,31.133C47.28,32.122 46.255,33.902 46.255,35.834C46.255,38.715 48.474,41.084 51.291,41.331L51.297,43.486L40.498,43.486L40.498,26.493L40.9,26.748C40.981,26.799 41.074,26.825 41.168,26.825C41.211,26.825 41.254,26.819 41.296,26.808C41.431,26.773 41.544,26.682 41.609,26.56L42.922,24.092C43.046,23.859 42.968,23.571 42.744,23.433L24.648,12.213C24.486,12.113 24.283,12.113 24.121,12.213L6.025,23.433C5.802,23.571 5.724,23.859 5.848,24.092L7.16,26.56C7.226,26.683 7.339,26.773 7.474,26.809C7.607,26.842 7.75,26.822 7.869,26.748L8.272,26.493L8.272,48.161L5.608,48.161C5.332,48.161 5.108,48.385 5.108,48.661L5.108,51.362C5.108,51.639 5.332,51.862 5.608,51.862L58.385,51.862C58.661,51.862 58.885,51.639 58.885,51.362L58.885,50.56C58.886,50.549 58.892,50.538 58.892,50.526L58.892,43.986ZM47.255,35.834C47.255,34.085 48.274,32.481 49.849,31.746C49.871,31.736 49.886,31.717 49.907,31.704C49.927,31.69 49.951,31.684 49.97,31.667C49.977,31.661 49.98,31.652 49.986,31.645C50.012,31.62 50.03,31.591 50.05,31.56C50.066,31.536 50.084,31.513 50.095,31.486C50.108,31.455 50.113,31.423 50.12,31.39C50.126,31.36 50.133,31.331 50.134,31.3C50.134,31.269 50.127,31.24 50.122,31.209C50.116,31.175 50.11,31.141 50.097,31.108C50.094,31.099 50.095,31.09 50.091,31.082C50.081,31.06 50.062,31.045 50.049,31.026C50.036,31.004 50.029,30.98 50.012,30.961C49.621,30.521 49.406,29.959 49.406,29.379C49.406,28.072 50.469,27.009 51.775,27.009C53.082,27.009 54.145,28.072 54.145,29.379C54.145,29.96 53.93,30.522 53.538,30.96C53.522,30.979 53.515,31.002 53.502,31.022C53.488,31.043 53.469,31.058 53.458,31.082C53.454,31.09 53.455,31.099 53.452,31.108C53.439,31.14 53.434,31.174 53.428,31.208C53.422,31.239 53.415,31.268 53.415,31.299C53.415,31.331 53.424,31.361 53.43,31.392C53.436,31.423 53.441,31.454 53.453,31.484C53.465,31.512 53.484,31.537 53.501,31.563C53.52,31.592 53.537,31.62 53.562,31.644C53.569,31.651 53.571,31.66 53.578,31.666C53.601,31.686 53.628,31.696 53.653,31.711C53.67,31.721 53.682,31.737 53.7,31.746C55.278,32.48 56.298,34.085 56.298,35.834C56.298,38.151 54.539,40.045 52.289,40.304L52.286,39.198L53.851,38.184C54.083,38.034 54.149,37.724 53.999,37.493C53.849,37.26 53.538,37.197 53.308,37.345L52.282,38.009L52.275,35.564C52.274,35.288 52.051,35.065 51.775,35.065L51.774,35.065C51.498,35.066 51.274,35.291 51.275,35.566L51.277,36.08L50.474,35.509C50.249,35.349 49.938,35.402 49.776,35.626C49.616,35.851 49.669,36.163 49.894,36.323L51.28,37.309L51.289,40.306C49.028,40.06 47.255,38.16 47.255,35.834ZM57.892,44.486L57.892,48.161L52.31,48.161L52.3,44.486L57.892,44.486ZM51.3,44.486L51.31,48.161L40.498,48.161L40.498,44.486L51.3,44.486ZM35.371,48.145L35.258,48.145C35.227,48.139 35.199,48.126 35.166,48.126C35.134,48.126 35.105,48.139 35.074,48.145L28.872,48.145L28.872,36.689L35.371,36.689L35.371,48.145ZM7.79,25.614L6.95,24.036L24.385,13.226L41.819,24.036L40.98,25.614L24.652,15.27C24.57,15.218 24.478,15.192 24.385,15.192C24.292,15.192 24.199,15.218 24.117,15.27L7.79,25.614ZM24.385,16.284L39.498,25.86L39.498,48.145L36.371,48.145L36.371,36.189C36.371,35.912 36.148,35.689 35.871,35.689L28.372,35.689C28.096,35.689 27.872,35.912 27.872,36.189L27.872,48.145L9.272,48.145L9.272,25.86L24.385,16.284ZM57.885,50.862L6.108,50.862L6.108,49.161L57.885,49.161L57.885,50.862Z" style="fill:rgb(26,91,87);fill-rule:nonzero;"/>
                        <path d="M21.239,26.619L27.53,26.619C27.807,26.619 28.03,26.395 28.03,26.119L28.03,21.029C28.03,20.753 27.807,20.529 27.53,20.529L21.239,20.529C20.963,20.529 20.739,20.753 20.739,21.029L20.739,26.119C20.739,26.395 20.963,26.619 21.239,26.619ZM21.739,24.074L23.885,24.074L23.885,25.619L21.739,25.619L21.739,24.074ZM24.885,25.619L24.885,24.074L27.03,24.074L27.03,25.619L24.885,25.619ZM27.03,23.074L24.885,23.074L24.885,21.529L27.03,21.529L27.03,23.074ZM23.885,21.529L23.885,23.074L21.739,23.074L21.739,21.529L23.885,21.529Z" style="fill:rgb(26,91,87);fill-rule:nonzero;"/>
                        <path d="M33.452,42.634C33.778,42.634 34.042,42.37 34.042,42.044C34.042,41.718 33.778,41.454 33.452,41.454C33.126,41.454 32.862,41.718 32.862,42.044C32.862,42.37 33.126,42.634 33.452,42.634Z" style="fill:rgb(26,91,87);fill-rule:nonzero;"/>
                        <path d="M13.03,41.772L22.459,41.772C22.735,41.772 22.959,41.548 22.959,41.272L22.959,36.189C22.959,35.912 22.735,35.689 22.459,35.689L13.03,35.689C12.754,35.689 12.53,35.912 12.53,36.189L12.53,41.272C12.53,41.548 12.754,41.772 13.03,41.772ZM13.53,36.689L21.959,36.689L21.959,40.771L13.53,40.771L13.53,36.689Z" style="fill:rgb(26,91,87);fill-rule:nonzero;"/>
                    </g>
                </g>
            </g>
        </g>
    </g>
</svg>
